X: 66
T:Gin I Were Where The Gadie Rins
% Nottingham Music Database
S:via PR
M:4/4
L:1/4
K:D
d/2B/2|"D"AA/2B/2 A/2B/2d/2e/2|ff fe/2d/2|"D"ff fe/2d/2|
"G""Em"ee/2f/2 "A7"e/2d/2B/2d/2|"D"AA/2B/2 A/2B/2d/2e/2|"D"ff fe/2d/2|\
"G"aA "A7"AB/2c/2|"G"d3::
c/2B/2|"D"AF FA|"A7"GE EG|"D"FD FA|"G"dc/2d/2 "A"e/2d/2c/2B/2|"D"AF FA|\
"A7"GE EG|"D"FD "A7"FA|"D"d3:|


